X:1
T:O Haro Of Erin
T:O Harp Of Erin
T:25 Irish songs N°25
T:Ludwig van Beethoven
C:Ludwig van Beethoven
%%score 1 2 3 { ( 4 6 ) | ( 5 7 ) }
L:1/8
Q:1/4=50
M:3/8
K:Eb
V:1 treble nm="Violin" snm="Vln."
V:2 bass nm="Violoncello" snm="Vc."
V:3 treble nm="Voice" snm="Vo"
V:4 treble nm="Grand Piano" snm="Pno."
V:6 treble 
V:5 bass 
V:7 bass 
V:1
"^Andantino semplice espressivo" (G,B,E | A,DE) | (F(F/4)G/4A/4G/4 F/4E/4D/4C/4) | %3
{C} (B,/4A,/4B,/4C/4 D/4E/4F/4G/4 _A/4F/4G/4A/4) | (A/G/E) |:S z | z3 | z3 | z3 | z3 | %10
 z z z/"_cantabile" (e/ | d/c/ B/bg/ | egb) | (bag |{g} f2 e | e2) z | z3 | z3 | z3 | z3 | z z e | %21
 (e>fe) |"_cresc." (egb | c'>d'e' | d'c'b/B/) |!f! (!>!A<a!p! e/f/ | g2) (g/a/ | b3-) | b2 (b | %29
 c'/c/de) | !fermata!e2 z/ (e/ | c'bg | egb) | (bag) | (gfe) | e>G,A,/A,/ | G,>G,A,/A,/ | %37
 G,>G,A,/A,/ | G,3/2(G,/4G/4 A/4B,/4A,/4B,/4) | %39
 (A,/4B,/4A,/4B,/4 G,/4B,/4G,/4B,/4 G,/4B,/4G,/4B,/4) |S G, z :| %41
V:2
!p!!p! (E,,3 | F,,2 G,, | A,,C,F,) | (D,B,>A,) | G, z |: E | CB,G, | E,G,B, | A,2 G, | G,F,E, | %10
 E,2 z | z3 | z3 | z3 | z3 | z z E, | (E,>F,E,) | (E,G,B,) | (C>D!<(!E!<)! |!>(! C2!>)! B,) | z3 | %21
 z3 | z3 | z3 | z z"_cresc." B, |!f! !>!E2!p! (E | CB,G, | E,G,B,) | (B,A,G,) | (G,F,E,) | %30
 !fermata![G,,E,]2 z | B,3- | B,3 | C/=B,/C/D/E/G,/ | A,/=A,/_B,/B,,/C,/D,/ | E,>(E,F,/)F,/ | %36
 E,>(E,F,/)F,/ | E,>(E,F,/)F,/ | E,>(E,F,/D/) | FEE | E z :| %41
V:3
 z3 | z3 | z3 | z3 | z2 |: e | (cB) G | (EG) B | A2 G | (GF) E | E2 e |{d} (cB) G | (EG) B | %13
w: |||||Oh|harp _ of|E- * rin|thou art|now _ laid|low, for|he _ the|last _ of|
w: |||||How|lone- * ly|were _ the|Min- strel's|lat- * ter|days, how|of _ thy|string _ with|
w: |||||The|gale _ that|round _ his|urn its|o- * dour|flings, and|waves _ the|flow'rs _ that|
 (BA) G |{F} F2 E | E2 E | (E>F) E | (EG) B | (c>d) e |{d} c2 B | B2 E | (E>F) E | (EG) B | %23
w: all _ his|race is|gone: and|now _ no|more _ the|Min- * strel's|verse shall|flow, that|sweet- * ly|min- * gled|
w: strains _ in-|dig- nant|rung; to|de- * sert|wilds _ he|pour'd _ his|an- cient|lays, or|to _ a|shep- * herd|
w: o'er _ it|wild- ly|wreathe, shall|thrill _ a-|long _ thy|few _ re-|main- ing|strings, and|with _ a|mourn- * ful|
 (c>d) e |{d} c2 B | e2 e | (cB) G | (EG) B |{B} A2 G | (GF) E | %30
w: with _ thy|dul- cet|tone: the|hand _ is|cold- * that|with a|po- * et's|
w: boy _ his|le- gend|sung: the|pur- * ple|heath _ of|ev'n- ning|was _ his|
w: chord _ his|re- quiem|breathe. The|shep- * herd|boy _ that|paus'd his|song _ to|
 E7/4 z/4 E/4-{EFGAGAB} c/4{GABcBcd} d/8e/8f/8e/8 | (cB) G | (EG) B | (BA) G | (GF) E | E2 z | z3 | %37
w: fire _ _ could _ _ _|sweep _ in|mag- * ie|change _ thy|sound- * ing|wire.||
w: bed, _ _ his _ _ _|shel- * ter|from _ the|storm _ a|peas- * ants|shed!||
w: hear, _ _ shall _ _ _|chaunt _ it|o'er _ his|grave, _ and|drop _ a|tear.||
 z3 | z3 | z3 | z2 :| %41
w: ||||
w: ||||
w: ||||
V:4
!p! z z (e | cB){B} (b/a/4g/4) | (f(f/4)g/4a/4g/4 f/4e/4d/4c/4) | %3
{c} (B/4=A/4B/4c/4 d/4e/4f/4g/4 _a/4f/4g/4a/4) | (b/g/e) |: (e | cBG) | (EGB | A2 G) | (GFE) | %10
 E2 (e | d/c/BG) | (EGB) | (BAB) |{F} (F2 E) | E2 E | (E>FE) | (EGB | c>d!<(!e!<)! |!>(! d!>)!cB) | %20
 [DB]2 E | (E>F E) | (EG[GB]) |"_cresc." (c>de | dcB) |!f! !>![E_Ae]2!p! (e | cBG) | (EGB) | %28
 (BAG) | (GFE) | !fermata![B,E]2 e | (cBG) | (EGB) | (BAG) | (GFE) | E>(ed/e/) | e>(c'b/d/) | %37
 E>(Ted/e/) | (e3/2c'/4=b/4_b/d/) | (fee) | e z :| %41
V:5
 [E,G,]/B,/[E,G,]/B,/[E,G,]/B,/ | [F,A,]/B,/[F,A,]/B,/[G,B,]/E/ | [A,C]/E/[A,C]/F/[A,C]/F/ | %3
 [B,D]/F/[B,D]/F/B,/[A,B,]/ | [G,B,] z |: (E,/D,/ | E,/F,/G,/A,/B,/A,/ | G,/F,/E,/D,/C,/B,,/ | %8
 C,/=B,,/C,/D,/E,/_B,,/ | =A,,/_A,,/B,,/A,,/G,,/F,,/) | (E,,/G,,/A,,/B,,/C,/D,/ | %11
 E,/F,/G,/A,/B,/A,/ | G,/F,/E,/D,/C,/B,,/ | C,/=B,,/C,/D,/E,/_B,,/ | =A,,/_A,,/B,,/A,,/G,,/B,,/) | %15
 (C,/D,/E,/D,/C,/B,,/ | =A,,/[E,F,]/A,,/[E,F,]/A,,/[E,F,]/) | (B,,/[E,G,]/B,,/[E,G,]/E,/B,,/ | %18
 =A,,/F,/B,,/F,/ E,,/E,/) | (F,,/F,/F,,/F,/B,,/F,/ | B,,/F,/E,/D,/C,/B,,/) | %21
 (=A,,/[E,F,]/A,,/[E,F,]/A,,/[E,F,]/ | B,,/[E,G,]/B,,/[E,G,]/E,/B,,/) | (=A,,/F,/B,,/F,/ E,,/E,/ | %24
 F,,/F,/B,,/F,/E,,/E,/) | (C,/E,/_A,/C/C,/D,/) | (E,/F,/G,/A,/B,/A,/ | G,/F,/E,/D,/C,/B,,/) | %28
 (C,/_B,,/C,/D,/E,/_B,,/ | =A,,/_A,,/B,,/A,,/G,,/A,,/) | !fermata!G,,2 z | E,/F,/G,/A,/B,/A,/ | %32
 G,/F,/E,/D,/C,/B,,/ | C,/=B,,/C,/D,/E,/G,,/ | A,,/=A,,/_B,,/B,,,/C,,/D,,/ | %35
 E,,/B,,/E,/B,,/B,,/B,,/ | E,,/B,,/E,/B,,/B,,/B,,/ | E,,/B,,/E,/B,,/B,,/B,,/ | %38
 E,,/B,,/E,/B,,/B,,/B,,/ | E,,/B,,/[E,,E,]/B,,/[E,,E,]/B,,/ | E, z :| %41
V:6
 x3 | x3 | x3 | x3 | x2 |: x | G2 E | E2 E/D/ | E/D/E/F/B, | CDB,/A,/ | G,2 E | EEE | E2 E/D/ | %13
 E/D/E/F/B/E/ | CD B,/G,/ | G,2 x | x3 | x3/2 x/ G/_G/ | FFG/c/ | B=A/E/D | x3 | x3 | x3 | %23
 FF G/c/ | B=A/E/D | x2 E/F/ | GEE | E2 E/D/ | E/D/E/F/B,/E/ | CD B,/C/ | x3 | GEE | E2 E/D/ | %33
 E/D/E/F/B,/E/ | CD/A,/G,/B,/4A,/4 | G,3/2 G/A/A/ | G3/2 z/ z/ A/ | G3/2 z/ A/A/ | G3/2 z/ z/ A/ | %39
 AGG | G x :| %41
V:7
 x3 | x3 | x3 | x3 | x2 |: x | x3 | x3 | x3 | x3 | x3 | x3 | x3 | x3 | x3 | x3 | x3 | x3 | x3 | %19
 x3 | x3 | x3 | x3 | x3 | x3 | x3 | x3 | x3 | x3 | x3 | x3 | x3 | x3 | x3 | x3 | x3 | x3 | x3 | %38
 x3 | x3 | E,, x :| %41

